src/assets/logo_whiteText.svg

<svg width="228" height="68" fill="none" xmlns="http://www.w3.org/2000/svg"><path d="M39 18a1.5 1.5 0 0 1 3 0v32a1.5 1.5 0 0 1-3 0V18Z" fill="url(#a)"/><path d="M44 25a1.5 1.5 0 0 1 3 0v19a1.5 1.5 0 0 1-3 0V25Z" fill="url(#b)"/><path d="M49 30a1.5 1.5 0 0 1 3 0v9a1.5 1.5 0 0 1-3 0v-9Z" fill="url(#c)"/><path d="M54 32a1.5 1.5 0 0 1 3 0v5a1.5 1.5 0 0 1-3 0v-5Z" fill="url(#d)"/><path d="M24 32a1.5 1.5 0 0 1 3 0v5a1.5 1.5 0 0 1-3 0v-5Z" fill="url(#e)"/><path d="M34 25a1.5 1.5 0 0 1 3 0v19a1.5 1.5 0 0 1-3 0V25Z" fill="url(#f)"/><path d="M29 30a1.5 1.5 0 0 1 3 0v9a1.5 1.5 0 0 1-3 0v-9Z" fill="url(#g)"/><path d="M70.992 43V26.2h3.216l7.152 11.856h-1.704L86.688 26.2h3.192l.048 16.8H86.28l-.024-11.208h.672l-5.616 9.432H79.56l-5.736-9.432h.816V43h-3.648Zm28.802.192c-1.376 0-2.6-.288-3.672-.864a6.726 6.726 0 0 1-2.52-2.352c-.608-1.008-.912-2.152-.912-3.432 0-1.296.304-2.44.912-3.432a6.482 6.482 0 0 1 2.52-2.352c1.072-.576 2.296-.864 3.672-.864 1.36 0 2.576.288 3.648.864 1.072.56 1.912 1.336 2.52 2.328.608.992.912 2.144.912 3.456 0 1.28-.304 2.424-.912 3.432-.608.992-1.448 1.776-2.52 2.352-1.072.576-2.288.864-3.648.864Zm0-3.072c.624 0 1.184-.144 1.68-.432a3.095 3.095 0 0 0 1.176-1.224c.288-.544.432-1.184.432-1.92 0-.752-.144-1.392-.432-1.92a3.095 3.095 0 0 0-1.176-1.224 3.284 3.284 0 0 0-1.68-.432c-.624 0-1.184.144-1.68.432a3.266 3.266 0 0 0-1.2 1.224c-.288.528-.432 1.168-.432 1.92 0 .736.144 1.376.432 1.92.304.528.704.936 1.2 1.224a3.284 3.284 0 0 0 1.68.432Zm15.726 3.072c-1.376 0-2.6-.288-3.672-.864a6.726 6.726 0 0 1-2.52-2.352c-.608-1.008-.912-2.152-.912-3.432 0-1.296.304-2.44.912-3.432a6.482 6.482 0 0 1 2.52-2.352c1.072-.576 2.296-.864 3.672-.864 1.36 0 2.576.288 3.648.864 1.072.56 1.912 1.336 2.52 2.328.608.992.912 2.144.912 3.456 0 1.28-.304 2.424-.912 3.432-.608.992-1.448 1.776-2.52 2.352-1.072.576-2.288.864-3.648.864Zm0-3.072c.624 0 1.184-.144 1.68-.432a3.095 3.095 0 0 0 1.176-1.224c.288-.544.432-1.184.432-1.92 0-.752-.144-1.392-.432-1.92A3.095 3.095 0 0 0 117.2 33.4a3.284 3.284 0 0 0-1.68-.432c-.624 0-1.184.144-1.68.432a3.266 3.266 0 0 0-1.2 1.224c-.288.528-.432 1.168-.432 1.92 0 .736.144 1.376.432 1.92.304.528.704.936 1.2 1.224a3.284 3.284 0 0 0 1.68.432Zm15.127 3.072c-1.216 0-2.312-.272-3.288-.816a6.252 6.252 0 0 1-2.328-2.328c-.56-.992-.84-2.16-.84-3.504 0-1.36.28-2.536.84-3.528a6.074 6.074 0 0 1 2.328-2.304c.976-.544 2.072-.816 3.288-.816 1.088 0 2.04.24 2.856.72.816.48 1.448 1.208 1.896 2.184.448.976.672 2.224.672 3.744 0 1.504-.216 2.752-.648 3.744-.432.976-1.056 1.704-1.872 2.184-.8.48-1.768.72-2.904.72Zm.648-3.072c.608 0 1.16-.144 1.656-.432a3.095 3.095 0 0 0 1.176-1.224c.304-.544.456-1.184.456-1.92 0-.752-.152-1.392-.456-1.92a3.095 3.095 0 0 0-1.176-1.224 3.238 3.238 0 0 0-1.656-.432c-.624 0-1.184.144-1.68.432a3.266 3.266 0 0 0-1.2 1.224c-.288.528-.432 1.168-.432 1.92 0 .736.144 1.376.432 1.92.304.528.704.936 1.2 1.224a3.284 3.284 0 0 0 1.68.432Zm3.384 2.88v-2.64l.072-3.84-.24-3.816v-7.512h3.744V43h-3.576Zm7.305 0V26.2h8.208c2.112 0 3.696.4 4.752 1.2 1.072.8 1.608 1.856 1.608 3.168 0 .88-.216 1.648-.648 2.304-.432.64-1.024 1.136-1.776 1.488-.752.352-1.616.528-2.592.528l.456-.984c1.056 0 1.992.176 2.808.528.816.336 1.448.84 1.896 1.512.464.672.696 1.496.696 2.472 0 1.44-.568 2.568-1.704 3.384-1.136.8-2.808 1.2-5.016 1.2h-8.688Zm3.864-2.928h4.536c1.008 0 1.768-.16 2.28-.48.528-.336.792-.864.792-1.584 0-.704-.264-1.224-.792-1.56-.512-.352-1.272-.528-2.28-.528h-4.824v-2.832h4.152c.944 0 1.664-.16 2.16-.48.512-.336.768-.84.768-1.512 0-.656-.256-1.144-.768-1.464-.496-.336-1.216-.504-2.16-.504h-3.864v10.944Zm20.632 3.12c-1.472 0-2.768-.288-3.888-.864-1.104-.576-1.96-1.36-2.568-2.352-.608-1.008-.912-2.152-.912-3.432 0-1.296.296-2.44.888-3.432a6.353 6.353 0 0 1 2.472-2.352c1.04-.576 2.216-.864 3.528-.864 1.264 0 2.4.272 3.408.816a5.896 5.896 0 0 1 2.424 2.304c.592.992.888 2.184.888 3.576 0 .144-.008.312-.024.504l-.048.504H162.16v-2.184h8.52l-1.44.648c0-.672-.136-1.256-.408-1.752a2.895 2.895 0 0 0-1.128-1.152c-.48-.288-1.04-.432-1.68-.432-.64 0-1.208.144-1.704.432-.48.272-.856.664-1.128 1.176-.272.496-.408 1.088-.408 1.776v.576c0 .704.152 1.328.456 1.872.32.528.76.936 1.32 1.224.576.272 1.248.408 2.016.408.688 0 1.288-.104 1.8-.312a4.378 4.378 0 0 0 1.44-.936l1.992 2.16c-.592.672-1.336 1.192-2.232 1.56-.896.352-1.928.528-3.096.528ZM182.781 43v-2.52l-.24-.552v-4.512c0-.8-.248-1.424-.744-1.872-.48-.448-1.224-.672-2.232-.672-.688 0-1.368.112-2.04.336-.656.208-1.216.496-1.68.864l-1.344-2.616c.704-.496 1.552-.88 2.544-1.152.992-.272 2-.408 3.024-.408 1.968 0 3.496.464 4.584 1.392 1.088.928 1.632 2.376 1.632 4.344V43h-3.504Zm-3.936.192c-1.008 0-1.872-.168-2.592-.504-.72-.352-1.272-.824-1.656-1.416a3.582 3.582 0 0 1-.576-1.992c0-.768.184-1.44.552-2.016.384-.576.984-1.024 1.8-1.344.816-.336 1.88-.504 3.192-.504h3.432V37.6h-3.024c-.88 0-1.488.144-1.824.432-.32.288-.48.648-.48 1.08 0 .48.184.864.552 1.152.384.272.904.408 1.56.408.624 0 1.184-.144 1.68-.432.496-.304.856-.744 1.08-1.32l.576 1.728c-.272.832-.768 1.464-1.488 1.896-.72.432-1.648.648-2.784.648Zm16.108 0c-1.52 0-2.704-.384-3.552-1.152-.848-.784-1.272-1.944-1.272-3.48V27.232h3.744v11.28c0 .544.144.968.432 1.272.288.288.68.432 1.176.432.592 0 1.096-.16 1.512-.48l1.008 2.64c-.384.272-.848.48-1.392.624a7.006 7.006 0 0 1-1.656.192Zm-6.816-9.936v-2.88h8.952v2.88h-8.952Z" fill="#fff"/><defs><linearGradient id="a" x1="30.5" y1="28.5" x2="30.5" y2="40.5" gradientUnits="userSpaceOnUse"><stop offset=".008" stop-color="#FD3B77"/><stop offset="1" stop-color="#4C239D"/></linearGradient><linearGradient id="b" x1="30.5" y1="28.5" x2="30.5" y2="40.5" gradientUnits="userSpaceOnUse"><stop offset=".008" stop-color="#FD3B77"/><stop offset="1" stop-color="#4C239D"/></linearGradient><linearGradient id="c" x1="30.5" y1="28.5" x2="30.5" y2="40.5" gradientUnits="userSpaceOnUse"><stop offset=".008" stop-color="#FD3B77"/><stop offset="1" stop-color="#4C239D"/></linearGradient><linearGradient id="d" x1="30.5" y1="28.5" x2="30.5" y2="40.5" gradientUnits="userSpaceOnUse"><stop offset=".008" stop-color="#FD3B77"/><stop offset="1" stop-color="#4C239D"/></linearGradient><linearGradient id="e" x1="30.5" y1="28.5" x2="30.5" y2="40.5" gradientUnits="userSpaceOnUse"><stop offset=".008" stop-color="#FD3B77"/><stop offset="1" stop-color="#4C239D"/></linearGradient><linearGradient id="f" x1="30.5" y1="28.5" x2="30.5" y2="40.5" gradientUnits="userSpaceOnUse"><stop offset=".008" stop-color="#FD3B77"/><stop offset="1" stop-color="#4C239D"/></linearGradient><linearGradient id="g" x1="30.5" y1="28.5" x2="30.5" y2="40.5" gradientUnits="userSpaceOnUse"><stop offset=".008" stop-color="#FD3B77"/><stop offset="1" stop-color="#4C239D"/></linearGradient></defs></svg>

<svg width="228" height="68" viewBox="0 0 228 68" fill="none" xmlns="http://www.w3.org/2000/svg">
<path d="M39 18C39 17.1716 39.6716 16.5 40.5 16.5C41.3284 16.5 42 17.1716 42 18V50C42 50.8284 41.3284 51.5 40.5 51.5C39.6716 51.5 39 50.8284 39 50V18Z" fill="url(#paint0_linear_4657_105941)"/>
<path d="M44 25C44 24.1716 44.6716 23.5 45.5 23.5C46.3284 23.5 47 24.1716 47 25V44C47 44.8284 46.3284 45.5 45.5 45.5C44.6716 45.5 44 44.8284 44 44V25Z" fill="url(#paint1_linear_4657_105941)"/>
<path d="M49 30C49 29.1716 49.6716 28.5 50.5 28.5C51.3284 28.5 52 29.1716 52 30V39C52 39.8284 51.3284 40.5 50.5 40.5C49.6716 40.5 49 39.8284 49 39V30Z" fill="url(#paint2_linear_4657_105941)"/>
<path d="M54 32C54 31.1716 54.6716 30.5 55.5 30.5C56.3284 30.5 57 31.1716 57 32V37C57 37.8284 56.3284 38.5 55.5 38.5C54.6716 38.5 54 37.8284 54 37V32Z" fill="url(#paint3_linear_4657_105941)"/>
<path d="M24 32C24 31.1716 24.6716 30.5 25.5 30.5C26.3284 30.5 27 31.1716 27 32V37C27 37.8284 26.3284 38.5 25.5 38.5C24.6716 38.5 24 37.8284 24 37V32Z" fill="url(#paint4_linear_4657_105941)"/>
<path d="M34 25C34 24.1716 34.6716 23.5 35.5 23.5C36.3284 23.5 37 24.1716 37 25V44C37 44.8284 36.3284 45.5 35.5 45.5C34.6716 45.5 34 44.8284 34 44V25Z" fill="url(#paint5_linear_4657_105941)"/>
<path d="M29 30C29 29.1716 29.6716 28.5 30.5 28.5C31.3284 28.5 32 29.1716 32 30V39C32 39.8284 31.3284 40.5 30.5 40.5C29.6716 40.5 29 39.8284 29 39V30Z" fill="url(#paint6_linear_4657_105941)"/>
<path d="M70.992 43V26.2H74.208L81.36 38.056H79.656L86.688 26.2H89.88L89.928 43H86.28L86.256 31.792H86.928L81.312 41.224H79.56L73.824 31.792H74.64V43H70.992ZM99.7939 43.192C98.4179 43.192 97.1939 42.904 96.1219 42.328C95.0659 41.752 94.2259 40.968 93.6019 39.976C92.9939 38.968 92.6899 37.824 92.6899 36.544C92.6899 35.248 92.9939 34.104 93.6019 33.112C94.2259 32.104 95.0659 31.32 96.1219 30.76C97.1939 30.184 98.4179 29.896 99.7939 29.896C101.154 29.896 102.37 30.184 103.442 30.76C104.514 31.32 105.354 32.096 105.962 33.088C106.57 34.08 106.874 35.232 106.874 36.544C106.874 37.824 106.57 38.968 105.962 39.976C105.354 40.968 104.514 41.752 103.442 42.328C102.37 42.904 101.154 43.192 99.7939 43.192ZM99.7939 40.12C100.418 40.12 100.978 39.976 101.474 39.688C101.97 39.4 102.362 38.992 102.65 38.464C102.938 37.92 103.082 37.28 103.082 36.544C103.082 35.792 102.938 35.152 102.65 34.624C102.362 34.096 101.97 33.688 101.474 33.4C100.978 33.112 100.418 32.968 99.7939 32.968C99.1699 32.968 98.6099 33.112 98.1139 33.4C97.6179 33.688 97.2179 34.096 96.9139 34.624C96.6259 35.152 96.4819 35.792 96.4819 36.544C96.4819 37.28 96.6259 37.92 96.9139 38.464C97.2179 38.992 97.6179 39.4 98.1139 39.688C98.6099 39.976 99.1699 40.12 99.7939 40.12ZM115.52 43.192C114.144 43.192 112.92 42.904 111.848 42.328C110.792 41.752 109.952 40.968 109.328 39.976C108.72 38.968 108.416 37.824 108.416 36.544C108.416 35.248 108.72 34.104 109.328 33.112C109.952 32.104 110.792 31.32 111.848 30.76C112.92 30.184 114.144 29.896 115.52 29.896C116.88 29.896 118.096 30.184 119.168 30.76C120.24 31.32 121.08 32.096 121.688 33.088C122.296 34.08 122.6 35.232 122.6 36.544C122.6 37.824 122.296 38.968 121.688 39.976C121.08 40.968 120.24 41.752 119.168 42.328C118.096 42.904 116.88 43.192 115.52 43.192ZM115.52 40.12C116.144 40.12 116.704 39.976 117.2 39.688C117.696 39.4 118.088 38.992 118.376 38.464C118.664 37.92 118.808 37.28 118.808 36.544C118.808 35.792 118.664 35.152 118.376 34.624C118.088 34.096 117.696 33.688 117.2 33.4C116.704 33.112 116.144 32.968 115.52 32.968C114.896 32.968 114.336 33.112 113.84 33.4C113.344 33.688 112.944 34.096 112.64 34.624C112.352 35.152 112.208 35.792 112.208 36.544C112.208 37.28 112.352 37.92 112.64 38.464C112.944 38.992 113.344 39.4 113.84 39.688C114.336 39.976 114.896 40.12 115.52 40.12ZM130.647 43.192C129.431 43.192 128.335 42.92 127.359 42.376C126.383 41.816 125.607 41.04 125.031 40.048C124.471 39.056 124.191 37.888 124.191 36.544C124.191 35.184 124.471 34.008 125.031 33.016C125.607 32.024 126.383 31.256 127.359 30.712C128.335 30.168 129.431 29.896 130.647 29.896C131.735 29.896 132.687 30.136 133.503 30.616C134.319 31.096 134.951 31.824 135.399 32.8C135.847 33.776 136.071 35.024 136.071 36.544C136.071 38.048 135.855 39.296 135.423 40.288C134.991 41.264 134.367 41.992 133.551 42.472C132.751 42.952 131.783 43.192 130.647 43.192ZM131.295 40.12C131.903 40.12 132.455 39.976 132.951 39.688C133.447 39.4 133.839 38.992 134.127 38.464C134.431 37.92 134.583 37.28 134.583 36.544C134.583 35.792 134.431 35.152 134.127 34.624C133.839 34.096 133.447 33.688 132.951 33.4C132.455 33.112 131.903 32.968 131.295 32.968C130.671 32.968 130.111 33.112 129.615 33.4C129.119 33.688 128.719 34.096 128.415 34.624C128.127 35.152 127.983 35.792 127.983 36.544C127.983 37.28 128.127 37.92 128.415 38.464C128.719 38.992 129.119 39.4 129.615 39.688C130.111 39.976 130.671 40.12 131.295 40.12ZM134.679 43V40.36L134.751 36.52L134.511 32.704V25.192H138.255V43H134.679ZM141.984 43V26.2H150.192C152.304 26.2 153.888 26.6 154.944 27.4C156.016 28.2 156.552 29.256 156.552 30.568C156.552 31.448 156.336 32.216 155.904 32.872C155.472 33.512 154.88 34.008 154.128 34.36C153.376 34.712 152.512 34.888 151.536 34.888L151.992 33.904C153.048 33.904 153.984 34.08 154.8 34.432C155.616 34.768 156.248 35.272 156.696 35.944C157.16 36.616 157.392 37.44 157.392 38.416C157.392 39.856 156.824 40.984 155.688 41.8C154.552 42.6 152.88 43 150.672 43H141.984ZM145.848 40.072H150.384C151.392 40.072 152.152 39.912 152.664 39.592C153.192 39.256 153.456 38.728 153.456 38.008C153.456 37.304 153.192 36.784 152.664 36.448C152.152 36.096 151.392 35.92 150.384 35.92H145.56V33.088H149.712C150.656 33.088 151.376 32.928 151.872 32.608C152.384 32.272 152.64 31.768 152.64 31.096C152.64 30.44 152.384 29.952 151.872 29.632C151.376 29.296 150.656 29.128 149.712 29.128H145.848V40.072ZM166.48 43.192C165.008 43.192 163.712 42.904 162.592 42.328C161.488 41.752 160.632 40.968 160.024 39.976C159.416 38.968 159.112 37.824 159.112 36.544C159.112 35.248 159.408 34.104 160 33.112C160.608 32.104 161.432 31.32 162.472 30.76C163.512 30.184 164.688 29.896 166 29.896C167.264 29.896 168.4 30.168 169.408 30.712C170.432 31.24 171.24 32.008 171.832 33.016C172.424 34.008 172.72 35.2 172.72 36.592C172.72 36.736 172.712 36.904 172.696 37.096C172.68 37.272 172.664 37.44 172.648 37.6H162.16V35.416H170.68L169.24 36.064C169.24 35.392 169.104 34.808 168.832 34.312C168.56 33.816 168.184 33.432 167.704 33.16C167.224 32.872 166.664 32.728 166.024 32.728C165.384 32.728 164.816 32.872 164.32 33.16C163.84 33.432 163.464 33.824 163.192 34.336C162.92 34.832 162.784 35.424 162.784 36.112V36.688C162.784 37.392 162.936 38.016 163.24 38.56C163.56 39.088 164 39.496 164.56 39.784C165.136 40.056 165.808 40.192 166.576 40.192C167.264 40.192 167.864 40.088 168.376 39.88C168.904 39.672 169.384 39.36 169.816 38.944L171.808 41.104C171.216 41.776 170.472 42.296 169.576 42.664C168.68 43.016 167.648 43.192 166.48 43.192ZM182.781 43V40.48L182.541 39.928V35.416C182.541 34.616 182.293 33.992 181.797 33.544C181.317 33.096 180.573 32.872 179.565 32.872C178.877 32.872 178.197 32.984 177.525 33.208C176.869 33.416 176.309 33.704 175.845 34.072L174.501 31.456C175.205 30.96 176.053 30.576 177.045 30.304C178.037 30.032 179.045 29.896 180.069 29.896C182.037 29.896 183.565 30.36 184.653 31.288C185.741 32.216 186.285 33.664 186.285 35.632V43H182.781ZM178.845 43.192C177.837 43.192 176.973 43.024 176.253 42.688C175.533 42.336 174.981 41.864 174.597 41.272C174.213 40.68 174.021 40.016 174.021 39.28C174.021 38.512 174.205 37.84 174.573 37.264C174.957 36.688 175.557 36.24 176.373 35.92C177.189 35.584 178.253 35.416 179.565 35.416H182.997V37.6H179.973C179.093 37.6 178.485 37.744 178.149 38.032C177.829 38.32 177.669 38.68 177.669 39.112C177.669 39.592 177.853 39.976 178.221 40.264C178.605 40.536 179.125 40.672 179.781 40.672C180.405 40.672 180.965 40.528 181.461 40.24C181.957 39.936 182.317 39.496 182.541 38.92L183.117 40.648C182.845 41.48 182.349 42.112 181.629 42.544C180.909 42.976 179.981 43.192 178.845 43.192ZM194.953 43.192C193.433 43.192 192.249 42.808 191.401 42.04C190.553 41.256 190.129 40.096 190.129 38.56V27.232H193.873V38.512C193.873 39.056 194.017 39.48 194.305 39.784C194.593 40.072 194.985 40.216 195.481 40.216C196.073 40.216 196.577 40.056 196.993 39.736L198.001 42.376C197.617 42.648 197.153 42.856 196.609 43C196.081 43.128 195.529 43.192 194.953 43.192ZM188.137 33.256V30.376H197.089V33.256H188.137Z" fill="white"/>
<defs>
<linearGradient id="paint0_linear_4657_105941" x1="30.5" y1="28.5" x2="30.5" y2="40.5" gradientUnits="userSpaceOnUse">
<stop offset="0.00775638" stop-color="#FD3B77"/>
<stop offset="1" stop-color="#4C239D"/>
</linearGradient>
<linearGradient id="paint1_linear_4657_105941" x1="30.5" y1="28.5" x2="30.5" y2="40.5" gradientUnits="userSpaceOnUse">
<stop offset="0.00775638" stop-color="#FD3B77"/>
<stop offset="1" stop-color="#4C239D"/>
</linearGradient>
<linearGradient id="paint2_linear_4657_105941" x1="30.5" y1="28.5" x2="30.5" y2="40.5" gradientUnits="userSpaceOnUse">
<stop offset="0.00775638" stop-color="#FD3B77"/>
<stop offset="1" stop-color="#4C239D"/>
</linearGradient>
<linearGradient id="paint3_linear_4657_105941" x1="30.5" y1="28.5" x2="30.5" y2="40.5" gradientUnits="userSpaceOnUse">
<stop offset="0.00775638" stop-color="#FD3B77"/>
<stop offset="1" stop-color="#4C239D"/>
</linearGradient>
<linearGradient id="paint4_linear_4657_105941" x1="30.5" y1="28.5" x2="30.5" y2="40.5" gradientUnits="userSpaceOnUse">
<stop offset="0.00775638" stop-color="#FD3B77"/>
<stop offset="1" stop-color="#4C239D"/>
</linearGradient>
<linearGradient id="paint5_linear_4657_105941" x1="30.5" y1="28.5" x2="30.5" y2="40.5" gradientUnits="userSpaceOnUse">
<stop offset="0.00775638" stop-color="#FD3B77"/>
<stop offset="1" stop-color="#4C239D"/>
</linearGradient>
<linearGradient id="paint6_linear_4657_105941" x1="30.5" y1="28.5" x2="30.5" y2="40.5" gradientUnits="userSpaceOnUse">
<stop offset="0.00775638" stop-color="#FD3B77"/>
<stop offset="1" stop-color="#4C239D"/>
</linearGradient>
</defs>
</svg>
